X: 2028
T: Corant.
%R: courante
B: Henry Playford "Apollo's Banquet", London 1687 (5th Edition)
F: https://archive.org/details/apollosbanquetco01rugg
Z: 2017 John Chambers <jc:trillian.mit.edu>
M: 3/2
L: 1/8
K: Dm
% - - - - - - - - - -
a |\
a3ba2 g2f3e | f3ae2 fed3e |\
^c2=BA_B2 A2d3e | c2f4 edg3f |\
e3(d/e/) f3g g3f | f8- f3 :: A |\
A3A=B2 c2=B3d |
^c4 d3(c/d/) e3c |\
f2d3a gfe3f | g6 a2b3c' |\
a3g agfgg3f | c2a4 gfe3d |\
g3d^c2 dee3d | d8- d3 |]
% - - - - - - - - - -

%%sep 1 1 500
%%sep 1 1 500

